X:75
T:Quick Step. RHu.075
S:R.Hughes MS,1823,Whitchurch,Shrops.
A:Whitchurch , Shropshire
Z:Neil Brookes 2006
M:2/4
L:1/8
Q:1/4=120
R:March
K:C
Gccc|Bddg|ecAd|cBAG|\
Gccc|Addg|ecAB|c2c2::!
geec’|affd’|bgab|c’3a|\
geeg|d/c/d/e/ dg|ecAB|c2c2:|

